themes/default/assets/images/icons/mid/clickable-prototype.svg

<?xml version="1.0" encoding="UTF-8"?>
<svg width="100px" height="75px" viewBox="0 0 100 75" version="1.1" xmlns="http://www.w3.org/2000/svg" xmlns:xlink="http://www.w3.org/1999/xlink">
    <!-- Generator: sketchtool 59 (101010) - https://sketch.com -->
    <title>85110C7B-8A0A-46C7-9082-BB274C9F7344</title>
    <desc>Created with sketchtool.</desc>
    <g id="Page-1" stroke="none" stroke-width="1" fill="none" fill-rule="evenodd">
        <g id="Icons" transform="translate(-374.000000, -2071.000000)" fill-rule="nonzero">
            <g id="mid-icon-clickableprototype" transform="translate(374.000000, 2071.000000)">
                <path d="M63.7254902,27.1363636 C63.8441307,25.4195846 63.2487716,23.7296043 62.0784314,22.461039 C61.1356562,21.5711843 59.8976472,21.0549434 58.5980392,21.0097403 L42.0196078,21.0097403 C40.366023,20.8911733 38.7441651,21.5043329 37.5882353,22.6850649 C36.6384913,23.8694359 36.1948869,25.3769913 36.3529412,26.8831169 L36.3529412,65.8441558 L36.3529412,68.6103896 C36.2242762,69.9874904 36.6804379,71.3553905 37.6112656,72.3837496 C38.5420934,73.4121088 39.8629667,74.00744 41.254902,74.025974 L41.254902,74.025974 L58.4215686,74.025974 C59.7450352,74.075269 61.0322629,73.590423 61.9901961,72.6818182 C63.0786678,71.4668965 63.6941305,69.905412 63.7254902,68.2792208 C63.7254902,67.9090909 63.7254902,32.0844156 63.7254902,27.1363636 Z M38.627451,23.5324675 C39.5266643,22.6574811 40.765681,22.2163239 42.0196078,22.3246753 L58.6078431,22.3246753 L58.6078431,22.3246753 C59.5407722,22.3760808 60.4257651,22.7519154 61.1078431,23.3863636 C62.0122631,24.4010357 62.4649181,25.7361291 62.3627451,27.0876623 C62.3627451,31.1688312 62.254902,56.1623377 62.3627451,65.0746753 L37.7352941,65.0746753 L37.7352941,26.737013 L37.7352941,26.6493506 C37.6253195,25.5401671 37.9326623,24.429814 38.5980392,23.5324675 L38.627451,23.5324675 Z M61.0196078,71.7175325 C60.3220795,72.3783321 59.3846092,72.7297973 58.4215686,72.6915584 L41.245098,72.6915584 C40.2078686,72.6831996 39.22386,72.234093 38.5417463,71.4577348 C37.8596327,70.6813766 37.544676,69.6520459 37.6764706,68.6298701 L37.6764706,66.4967532 L62.3137255,66.4967532 C62.3137255,67.6071429 62.3137255,68.2597403 62.3137255,68.3084416 C62.2860402,69.5581284 61.8294526,70.760916 61.0196078,71.7175325 L61.0196078,71.7175325 Z" id="Shape" fill="#A8C5DD"></path>
                <path d="M51.8137255,68.8344156 L47.4607843,68.8344156 C47.0817654,68.8344156 46.7745098,69.139676 46.7745098,69.5162338 C46.7745098,69.8927916 47.0817654,70.1980519 47.4607843,70.1980519 L51.8235294,70.1980519 C52.2025484,70.1980519 52.5098039,69.8927916 52.5098039,69.5162338 C52.515444,69.3320323 52.4435839,69.1538245 52.311495,69.0244416 C52.179406,68.8950587 51.9990322,68.8262001 51.8137255,68.8344156 Z" id="Path" fill="#A8C5DD"></path>
                <path d="M28.4313725,7.13961039 C28.5508928,5.42095486 27.9514475,3.72944402 26.7745098,2.46428571 C25.8399507,1.55090573 24.5944838,1.01911063 23.2843137,0.974025974 L6.70588235,0.974025974 C5.0512922,0.84860745 3.42660593,1.46283633 2.2745098,2.64935065 C1.33220843,3.82621248 0.889043223,5.32179227 1.03921569,6.81818182 L0.980392157,45.7792208 L0.980392157,45.7792208 L0.980392157,48.4967532 C0.891763468,49.9635399 1.41681149,51.4015707 2.43137255,52.4707792 C3.37962347,53.3569678 4.62043572,53.8694615 5.92156863,53.9123377 L5.92156863,53.9123377 L23.0882353,53.9123377 C24.4117019,53.9616326 25.6989296,53.4767866 26.6568627,52.5681818 C27.7359817,51.3867217 28.363919,49.8667099 28.4313725,48.2727273 C28.4313725,47.9123377 28.4313725,12.0876623 28.4313725,7.13961039 Z M3.31372549,3.53571429 C4.20920081,2.66115756 5.4451111,2.21983081 6.69607843,2.32792208 L23.2941176,2.32792208 L23.2941176,2.32792208 C24.2270468,2.37932753 25.1120396,2.75516217 25.7941176,3.38961039 C26.6985376,4.40428241 27.1511926,5.7393759 27.0490196,7.09090909 C27.0490196,11.1720779 26.9313725,36.1655844 27.0490196,45.0779221 L2.42156863,45.0779221 L2.41176471,6.81818182 L2.41176471,6.72077922 C2.29538374,5.58390253 2.61775494,4.44552358 3.31372549,3.53571429 Z M25.7352941,51.7207792 C25.0377658,52.3815788 24.1002955,52.7330441 23.1372549,52.6948052 L5.96078431,52.5974026 C5.03274538,52.5723033 4.14222696,52.2280481 3.44117647,51.6233766 C2.69008965,50.8020569 2.3109122,49.7106389 2.39215686,48.6038961 L2.39215686,46.5 L27.0294118,46.5 C27.0294118,47.6103896 27.0294118,48.262987 27.0294118,48.3116883 C27.0017265,49.5613752 26.5451389,50.7641627 25.7352941,51.7207792 L25.7352941,51.7207792 Z" id="Shape" fill="#A8C5DD"></path>
                <path d="M16.5294118,48.8376623 L12.1764706,48.8376623 C11.7974516,48.8376623 11.4901961,49.1429227 11.4901961,49.5194805 C11.4901961,49.8906589 11.7930623,50.1915584 12.1666667,50.1915584 L16.5294118,50.1915584 C16.7114231,50.1915584 16.8859797,50.1197242 17.0146811,49.9918585 C17.1433826,49.8639928 17.2156863,49.6905697 17.2156863,49.5097403 C17.2156863,49.3297936 17.1430903,49.1573551 17.0140991,49.0310323 C16.8851079,48.9047094 16.7105155,48.8350544 16.5294118,48.8376623 L16.5294118,48.8376623 Z" id="Path" fill="#A8C5DD"></path>
                <path d="M99.0196078,17.3961039 C99.1382483,15.6793248 98.5428892,13.9893445 97.372549,12.7207792 C96.4297739,11.8309246 95.1917648,11.3146836 93.8921569,11.2694805 L77.3137255,11.2694805 C75.6597393,11.1481902 74.0367602,11.7617737 72.8823529,12.9448052 C71.9326089,14.1291762 71.4890045,15.6367316 71.6470588,17.1428571 L71.6470588,56.1038961 L71.6470588,58.8701299 C71.5183939,60.2472306 71.9745555,61.6151308 72.9053833,62.6434899 C73.836211,63.6718491 75.1570843,64.2671802 76.5490196,64.2857143 L76.5490196,64.2857143 L93.7156863,64.2857143 C95.0391529,64.3350092 96.3263805,63.8501633 97.2843137,62.9415584 C98.3727854,61.7266367 98.9882482,60.1651523 99.0196078,58.538961 C99.0196078,58.1688312 99.0196078,22.3441558 99.0196078,17.3961039 Z M73.9215686,13.7922078 C74.820782,12.9172214 76.0597987,12.4760641 77.3137255,12.5844156 L93.9019608,12.5844156 L93.9019608,12.5844156 C94.8348899,12.635821 95.7198828,13.0116557 96.4019608,13.6461039 C97.3063807,14.6607759 97.7590357,15.9958694 97.6568627,17.3474026 C97.6568627,21.4285714 97.5392157,46.4220779 97.6568627,55.3344156 L73.0294118,55.3344156 L73.0294118,16.9967532 L73.0294118,16.9090909 C72.9362046,15.7924653 73.264727,14.6813536 73.9509804,13.7922078 L73.9215686,13.7922078 Z M96.372549,61.9772727 C95.6750207,62.6380724 94.7375504,62.9895376 93.7745098,62.9512987 L76.5980392,62.9512987 C75.6613447,62.9072909 74.7698,62.5385133 74.0784314,61.9090909 C73.3263305,61.0883685 72.9469981,59.9965045 73.0294118,58.8896104 L73.0294118,56.7564935 L97.6666667,56.7564935 C97.6666667,57.8668831 97.6666667,58.5194805 97.6666667,58.5681818 C97.6389814,59.8178687 97.1823938,61.0206562 96.372549,61.9772727 L96.372549,61.9772727 Z" id="Shape" fill="#A8C5DD"></path>
                <path d="M87.1666667,59.0941558 L82.8137255,59.0941558 C82.4347065,59.0941558 82.127451,59.3994162 82.127451,59.775974 C82.127451,60.1525318 82.4347065,60.4577922 82.8137255,60.4577922 L87.1764706,60.4577922 C87.5554895,60.4577922 87.8627451,60.1525318 87.8627451,59.775974 C87.8683851,59.5917726 87.7965251,59.4135647 87.6644361,59.2841818 C87.5323472,59.154799 87.3519734,59.0859403 87.1666667,59.0941558 L87.1666667,59.0941558 Z" id="Path" fill="#A8C5DD"></path>
                <path d="M80.0686275,23.6006494 C80.0741739,23.5586214 80.0741739,23.5160539 80.0686275,23.474026 C80.0740642,23.431991 80.0740642,23.3894376 80.0686275,23.3474026 C80.0733221,23.3053237 80.0733221,23.2628582 80.0686275,23.2207792 C80.0731673,23.1786919 80.0731673,23.1362431 80.0686275,23.0941558 L80,22.9772727 C79.9838532,22.9459002 79.9641147,22.9164847 79.9411765,22.8896104 L76.1176471,18.75 C75.989948,18.6165931 75.8127557,18.5410712 75.627451,18.5410712 C75.4421462,18.5410712 75.264954,18.6165931 75.1372549,18.75 C75.0029761,18.8768699 74.9269605,19.0529115 74.9269605,19.237013 C74.9269605,19.4211145 75.0029761,19.5971561 75.1372549,19.724026 L77.9411765,22.7532468 L74.0196078,22.7532468 C72.0877234,22.6337409 70.2044051,23.3850385 68.8921569,24.7987013 C66.6666667,27.2727273 67.0980392,31.1688312 67.1666667,31.6850649 L67.1666667,39.262987 C67.1666667,41.9512987 66.4117647,43.9480519 64.9411765,45.1850649 C63.3267069,46.3530297 61.3245801,46.8651164 59.3431373,46.6168831 C58.9697079,46.558436 58.619024,46.8110309 58.5588235,47.1818182 C58.5307082,47.3588899 58.5749601,47.539783 58.6817414,47.6842821 C58.7885228,47.8287812 58.9489836,47.9249104 59.127451,47.9512987 C59.5202413,48.0078178 59.9168645,48.0338705 60.3137255,48.0292208 C62.3063037,48.0898539 64.2568171,47.4519503 65.8235294,46.2272727 C67.6078431,44.7175325 68.5196078,42.3311688 68.5294118,39.2727273 L68.5294118,31.6461039 L68.5294118,31.5487013 C68.5294118,31.5487013 68.0098039,27.7987013 69.9215686,25.6168831 C70.9838722,24.512283 72.4854989,23.9340919 74.0196078,24.038961 L77.872549,24.038961 L75.1176471,27.0584416 C74.8484749,27.3280498 74.8484749,27.7628593 75.1176471,28.0324675 C75.2476687,28.1383799 75.4102986,28.1968215 75.5784314,28.1980519 C75.7718418,28.2047233 75.9583711,28.1263195 76.0882353,27.9837662 L79.9019608,23.8051948 L79.9019608,23.7175325 C79.9676269,23.6952139 80.0254702,23.6546484 80.0686275,23.6006494 L80.0686275,23.6006494 Z" id="Path" fill="#032663"></path>
                <path d="M44.0490196,47.7272727 L44.0490196,47.6006494 C44.0490196,47.6006494 44.0490196,47.512987 44.0490196,47.474026 C44.0490196,47.4350649 44.0490196,47.3863636 44.0490196,47.3474026 C44.054566,47.3053747 44.054566,47.2628072 44.0490196,47.2207792 C44.0337772,47.1778627 44.010491,47.1382027 43.9803922,47.1038961 L43.9313725,47.0162338 L40.0980392,42.8571429 C39.8266689,42.5897186 39.3890174,42.5897186 39.1176471,42.8571429 C38.9833683,42.9840127 38.9073527,43.1600544 38.9073527,43.3441558 C38.9073527,43.5282573 38.9833683,43.704299 39.1176471,43.8311688 L41.745098,46.6655844 L39.1078431,46.6655844 C37.5162536,46.7504821 35.9641255,46.154932 34.8431373,45.0292208 C32.7745098,42.8279221 33,39.1071429 33,39.0292208 L33,31.4025974 C33.1220788,29.092617 32.2817391,26.8345581 30.6764706,25.1590909 C28.9617969,23.5943042 26.7298376,22.7073178 24.4019608,22.6655844 L20.1960784,22.6655844 C19.933132,22.634192 19.6754707,22.7559185 19.534016,22.9783615 C19.3925614,23.2008044 19.3925614,23.4842605 19.534016,23.7067035 C19.6754707,23.9291464 19.933132,24.050873 20.1960784,24.0194805 L24.4313725,24.0194805 C26.3955674,24.0740752 28.2773393,24.8156874 29.745098,26.1136364 C31.0842925,27.5422471 31.775295,29.4539286 31.6568627,31.4025974 L31.6568627,38.9805195 C31.6568627,39.1558442 31.3823529,43.3149351 33.8529412,45.9448052 C35.2253838,47.3571103 37.1439523,48.1131652 39.1176471,48.0194805 L42.0588235,48.0194805 L39.1176471,51.2435065 C38.9427579,51.4426422 38.8994522,51.7242518 39.0065143,51.9661844 C39.1135765,52.208117 39.3517197,52.3667897 39.6176471,52.3734503 C39.8123587,52.3762586 39.998605,52.2944154 40.127451,52.1493506 L43.9411765,47.9805195 C43.9649364,47.9560494 43.9818362,47.9258272 43.9901961,47.8928571 L44.0490196,47.7272727 Z" id="Path" fill="#032663"></path>
                <path d="M54.3627451,52.724026 C51.7711903,52.6876771 49.5514741,50.8708315 49.0196078,48.3506494 C48.9487241,47.9879775 48.9126147,47.619445 48.9117647,47.25 C48.9117647,44.2267789 51.3785879,41.775974 54.4215686,41.775974 C57.4645493,41.775974 59.9313725,44.2267789 59.9313725,47.25 C59.9349302,47.5767942 59.9053695,47.9031144 59.8431373,48.224026 C59.3726399,50.8553457 57.0524794,52.7604506 54.3627451,52.724026 Z M54.3627451,43.1590446 C53.262873,43.1539121 52.2059794,43.5830371 51.4245752,44.3520606 C50.6431709,45.1210842 50.2012665,46.1670101 50.1960737,47.2597403 C50.1956417,47.5380532 50.2252223,47.8156115 50.2843137,48.0876623 C50.6932747,50.0191069 52.4206537,51.3930978 54.4070981,51.3670052 C56.3935425,51.3409127 58.0837551,49.9220307 58.4411765,47.9805195 C58.4839313,47.7490962 58.5068891,47.5144922 58.5098039,47.2792208 C58.5045355,45.0172828 56.6687836,43.1804239 54.3921569,43.1590446 L54.3627451,43.1590446 Z" id="Shape" fill="#2969F6"></path>
                <path d="M15.3529402,28.7142857 C12.7442399,28.7119682 10.4960477,26.8892908 9.97058824,24.3506494 C9.89215442,23.988956 9.85271632,23.6199922 9.85294022,23.25 C9.85294022,20.226779 12.3197644,17.7759741 15.3627451,17.7759741 C18.4057257,17.7759741 20.872549,20.226779 20.872549,23.25 C20.8761067,23.5767942 20.8465459,23.9031144 20.7843137,24.224026 C20.3163413,26.8353017 18.0225628,28.7316292 15.3529402,28.7142857 Z M15.3529412,19.1590787 C13.0685769,19.1536373 11.2078186,20.9805637 11.186273,23.25 C11.1860306,23.5315227 11.2156052,23.8122894 11.2745098,24.0876623 C11.673299,26.0310585 13.4063168,27.4183755 15.4024776,27.3921868 C17.3986384,27.3659981 19.094179,25.9337 19.4411765,23.9805195 C19.4802347,23.7487671 19.4999098,23.5141994 19.5,23.2792208 C19.5,21.0113218 17.6552453,19.1698138 15.372549,19.1590787 L15.3529412,19.1590787 Z" id="Shape" fill="#2969F6"></path>
            </g>
        </g>
    </g>
</svg>

<svg xmlns="http://www.w3.org/2000/svg" width="100" height="75"><defs/><g fill="none" fill-rule="nonzero"><path fill="#A8C5DD" d="M63.73 27.14a6.26 6.26 0 00-1.65-4.68 5.34 5.34 0 00-3.48-1.45H42.02a5.64 5.64 0 00-4.43 1.68 5.75 5.75 0 00-1.24 4.2V68.6a4.94 4.94 0 004.9 5.42h17.17A4.92 4.92 0 0062 72.68a6.8 6.8 0 001.74-4.4V27.14zm-25.1-3.6a4.33 4.33 0 013.39-1.22h16.59a4 4 0 012.5 1.07 5 5 0 011.25 3.7c0 4.08-.1 29.07 0 37.98H37.74V26.64c-.11-1.1.2-2.21.86-3.1h.03zm22.39 48.18a3.57 3.57 0 01-2.6.97H41.25a3.64 3.64 0 01-3.57-4.06V66.5H62.3v1.8a5.46 5.46 0 01-1.29 3.42z"/><path fill="#A8C5DD" d="M51.81 68.83h-4.35c-.38 0-.69.31-.69.69 0 .37.31.68.7.68h4.35c.38 0 .69-.3.69-.68a.66.66 0 00-.7-.69zM28.43 7.14a6.23 6.23 0 00-1.66-4.68A5.25 5.25 0 0023.28.97H6.71a5.59 5.59 0 00-4.44 1.68 5.75 5.75 0 00-1.23 4.17L.98 45.78v2.72a5.3 5.3 0 001.45 3.97c.95.89 2.19 1.4 3.5 1.44h17.16a4.92 4.92 0 003.57-1.34 6.8 6.8 0 001.77-4.3V7.14zM3.31 3.54A4.31 4.31 0 016.7 2.33h16.6a4 4 0 012.5 1.06 5 5 0 011.25 3.7c0 4.08-.12 29.08 0 37.99H2.42V6.72c-.12-1.14.2-2.27.9-3.18zm22.43 48.18a3.57 3.57 0 01-2.6.97l-17.18-.1a4.02 4.02 0 01-2.52-.97A4.04 4.04 0 012.4 48.6v-2.1h24.64v1.81a5.46 5.46 0 01-1.3 3.41z"/><path fill="#A8C5DD" d="M16.53 48.84h-4.35c-.38 0-.69.3-.69.68 0 .37.3.67.68.67h4.36a.69.69 0 00.69-.68.67.67 0 00-.7-.67zM99.02 17.4a6.26 6.26 0 00-1.65-4.68 5.34 5.34 0 00-3.48-1.45H77.31a5.62 5.62 0 00-4.43 1.67 5.75 5.75 0 00-1.23 4.2V58.87a4.94 4.94 0 004.9 5.42h17.17a4.92 4.92 0 003.56-1.35 6.8 6.8 0 001.74-4.4V17.4zm-25.1-3.6a4.33 4.33 0 013.4-1.22H93.9a4 4 0 012.5 1.07 5 5 0 011.26 3.7c0 4.08-.12 29.07 0 37.98H73.03V16.9c-.1-1.1.23-2.22.92-3.1h-.03zm22.45 48.18a3.57 3.57 0 01-2.6.97H76.6a4.02 4.02 0 01-2.52-1.04 4.03 4.03 0 01-1.05-3.02v-2.13h24.64v1.8a5.46 5.46 0 01-1.3 3.42z"/><path fill="#A8C5DD" d="M87.17 59.1H82.8c-.38 0-.68.3-.68.68 0 .37.3.68.68.68h4.37c.38 0 .68-.3.68-.68a.66.66 0 00-.7-.69z"/><path fill="#032663" d="M80.07 23.6v-.13a.5.5 0 000-.12v-.13-.13l-.07-.11a.46.46 0 00-.06-.09l-3.82-4.14a.68.68 0 00-.98 0 .67.67 0 000 .97l2.8 3.03h-3.92a6.45 6.45 0 00-5.13 2.05c-2.22 2.47-1.8 6.37-1.72 6.89v7.57c0 2.7-.76 4.69-2.23 5.93a7.88 7.88 0 01-5.6 1.43.69.69 0 00-.78.56.67.67 0 00.57.77c.39.06.79.08 1.18.08 2 .06 3.95-.58 5.51-1.8 1.79-1.51 2.7-3.9 2.7-6.96v-7.72s-.51-3.75 1.4-5.93a5.2 5.2 0 014.1-1.58h3.85l-2.75 3.02a.69.69 0 000 .97c.13.1.29.17.46.17.2 0 .38-.07.5-.22l3.82-4.17v-.1a.36.36 0 00.17-.1zM44.05 47.73v-.13-.13-.12-.13a.36.36 0 00-.07-.12l-.05-.08-3.83-4.16a.7.7 0 00-1.2.48c0 .19.08.36.22.5l2.63 2.83H39.1a5.6 5.6 0 01-4.27-1.64c-2.07-2.2-1.84-5.92-1.84-6V31.4a8.38 8.38 0 00-2.32-6.24 9.56 9.56 0 00-6.28-2.5h-4.2a.69.69 0 00-.67.32.68.68 0 000 .73c.15.22.4.34.67.3h4.23c1.97.06 3.85.8 5.32 2.1a7.1 7.1 0 011.9 5.3v7.57c0 .18-.27 4.33 2.2 6.96a6.89 6.89 0 005.27 2.08h2.94l-2.94 3.22a.68.68 0 00-.11.73.67.67 0 001.12.18l3.81-4.17a.2.2 0 00.05-.09l.06-.16z"/><path fill="#2969F6" d="M54.36 52.72a5.53 5.53 0 01-5.45-5.47 5.5 5.5 0 015.51-5.47 5.5 5.5 0 015.42 6.44 5.48 5.48 0 01-5.48 4.5zm0-9.56a4.16 4.16 0 00-4.16 4.1 4.15 4.15 0 008.31.02c0-2.26-1.84-4.1-4.12-4.12h-.03zM15.35 28.71a5.5 5.5 0 01-5.5-5.46 5.5 5.5 0 015.51-5.47 5.5 5.5 0 015.42 6.44 5.47 5.47 0 01-5.43 4.5zm0-9.55a4.14 4.14 0 00-4.08 4.93 4.15 4.15 0 008.23-.81c0-2.27-1.84-4.11-4.13-4.12h-.02z"/></g></svg>
